flaticon/files-and-folders/files-4.svg

<svg xmlns="http://www.w3.org/2000/svg" width="32" height="32" viewBox="0 0 24 24">
    <path d="M 20.792969 5.117188 C 20.769531 5 20.707031 4.90625 20.609375 4.851562 L 15.949219 0.191406 C 15.894531 0.09375 15.800781 0.0273438 15.683594 0.0078125 C 15.648438 0 15.613281 0 15.578125 0 L 4.398438 0 C 3.71875 0 3.199219 0.523438 3.199219 1.203125 L 3.199219 22.800781 C 3.199219 23.480469 3.71875 24 4.398438 24 L 19.597656 24 C 20.277344 24 20.796875 23.480469 20.796875 22.800781 L 20.796875 5.222656 C 20.800781 5.1875 20.800781 5.152344 20.792969 5.117188 Z M 19.4375 4.800781 L 16.398438 4.800781 C 16.160156 4.800781 16 4.640625 16 4.402344 L 16 1.363281 Z M 20 22.800781 C 20 23.039062 19.839844 23.199219 19.597656 23.199219 L 4.398438 23.199219 C 4.160156 23.199219 4 23.039062 4 22.800781 L 4 1.203125 C 4 1 4.160156 0.800781 4.398438 0.800781 L 15.199219 0.800781 L 15.199219 4.402344 C 15.199219 5.082031 15.71875 5.601562 16.398438 5.601562 L 20 5.601562 Z M 20 22.800781"/>
    <path d="M 5.597656 7.601562 L 5.597656 20.398438 C 5.597656 20.640625 5.757812 20.800781 6 20.800781 L 18 20.800781 C 18.238281 20.800781 18.398438 20.640625 18.398438 20.398438 L 18.398438 7.601562 C 18.398438 7.359375 18.238281 7.199219 18 7.199219 L 6 7.199219 C 5.757812 7.199219 5.597656 7.359375 5.597656 7.601562 Z M 13.597656 11.199219 L 13.597656 13.601562 L 10.398438 13.601562 L 10.398438 11.199219 Z M 17.597656 11.199219 L 17.597656 13.601562 L 14.398438 13.601562 L 14.398438 11.199219 Z M 6.398438 14.402344 L 9.597656 14.402344 L 9.597656 16.800781 L 6.398438 16.800781 Z M 10.398438 14.402344 L 13.597656 14.402344 L 13.597656 16.800781 L 10.398438 16.800781 Z M 14.398438 14.402344 L 17.597656 14.402344 L 17.597656 16.800781 L 14.398438 16.800781 Z M 9.597656 13.601562 L 6.398438 13.601562 L 6.398438 11.199219 L 9.597656 11.199219 Z M 6.398438 17.601562 L 9.597656 17.601562 L 9.597656 20 L 6.398438 20 Z M 10.398438 17.601562 L 13.597656 17.601562 L 13.597656 20 L 10.398438 20 Z M 17.597656 20 L 14.398438 20 L 14.398438 17.601562 L 17.597656 17.601562 Z M 6.398438 8 L 17.597656 8 L 17.597656 10.402344 L 6.398438 10.402344 Z M 6.398438 8"/>
    <path d="M 16.800781 9.199219 C 16.800781 8.960938 16.640625 8.800781 16.398438 8.800781 L 7.597656 8.800781 C 7.359375 8.800781 7.199219 8.960938 7.199219 9.199219 C 7.199219 9.441406 7.359375 9.601562 7.597656 9.601562 L 16.398438 9.601562 C 16.640625 9.601562 16.800781 9.441406 16.800781 9.199219 Z M 16.800781 9.199219"/>
</svg>

<svg xmlns="http://www.w3.org/2000/svg" width="32" height="32" viewBox="0 0 24 24">
    <path d="M20.793 5.117a.378.378 0 0 0-.184-.265L15.95.192a.367.367 0 0 0-.265-.184C15.648 0 15.614 0 15.578 0H4.398C3.718 0 3.2.523 3.2 1.203v21.598c0 .68.52 1.199 1.2 1.199h15.199c.68 0 1.199-.52 1.199-1.2V5.224a.32.32 0 0 0-.004-.106zm-1.355-.316h-3.04c-.238 0-.398-.16-.398-.399V1.363zm.562 18c0 .238-.16.398-.402.398h-15.2c-.238 0-.398-.16-.398-.398V1.203a.4.4 0 0 1 .398-.402H15.2v3.601c0 .68.52 1.2 1.2 1.2H20zm0 0"/>
    <path d="M5.598 7.602v12.796c0 .243.16.403.402.403h12c.238 0 .398-.16.398-.403V7.602c0-.243-.16-.403-.398-.403H6c-.242 0-.402.16-.402.403zm8 3.597v2.403h-3.2v-2.403zm4 0v2.403h-3.2v-2.403zm-11.2 3.203h3.2v2.399h-3.2zm4 0h3.2v2.399h-3.2zm4 0h3.2v2.399h-3.2zm-4.8-.8h-3.2v-2.403h3.2zm-3.2 4h3.2V20h-3.2zm4 0h3.2V20h-3.2zm7.2 2.398h-3.2v-2.398h3.2zM6.398 8h11.2v2.402h-11.2zm0 0"/>
    <path d="M16.8 9.2c0-.24-.16-.4-.402-.4h-8.8c-.239 0-.399.16-.399.4 0 .241.16.402.399.402h8.8c.243 0 .403-.16.403-.403zm0 0"/>
</svg>
